X:1
T:Alligator Crawl
T:By THOMAS “FATS” WALLER
T:ALLIGATOR CRAWL
T:Public Domain in EU and Canada
T:Public Domain in EU and Canada
T:Public Domain in EU and Canada
T:Public Domain in EU and Canada
C:Thomas "Fats" Waller
Z:Public Domain in EU and Canada
%%score { ( 1 3 ) | 2 }
L:1/8
Q:1/4=120
M:2/2
K:C
V:1 treble nm="Piano" snm="Pno."
V:3 treble 
V:2 bass 
V:1
!mf!"^Moderato" z8 | z8 | z8 | z8 ||!mf! (3([_eg]dc) A z z4 | z8 | %6
 z2 (3(_gf_f) ([_egc'] [g_b_e']2) [gbe'] | (3(_g=f_f) [_egc'][g_b_e']- [gbe']2 z2 | %8
 z3/2 ^d'<=e'=b/ =d'>c' b/c'/b/a/ | b>c' d'g- g2 z2 | z3/2 ^d'<e'b/ =d'>c' b/c'/b/a/ | %11
 b>c' d'g'- g'2 z2 | (3([_eg]dc) A z z4 | z8 | z2 (3(_gf_f) ([_egc'] [g_b_e']2) [egc'] | %15
 (3(_g=f_f) [_egc'][g_b_e']- [gbe']2 z2 | z3/2 ^d'<=e'=b/ =d'>c' b/c'/b/a/ | b>c' d'g- g2 z2 | %18
 z3/2 [E,G,C]<[F,A,D][G,B,E]/ [A,CF]>[B,DG][CEA]>[DFB] | [EGc] z [FBd][Gce]- [Gce]2 z2 || %20
!f! [ce]>[df] [^d^f]>[eg] [ce]>[=d=f] [^d^f]>[eg] | [^fc'e']2 [fc'e'][=f_ac'=d']- [fac'd']4 | %22
 z3/2 ^d'<e'b/ =d'>c' b/c'/b/a/ | d'2 bg- g4 | [ce]>[df] [^d^f]>[eg] [ce]>[=d=f] [^d^f]>[eg] | %25
 [^fc'e']2 [fc'e'][=f_ac'=d']- [fac'd']4 |{/b} c'g e/g/e/c/ =af d/f/d/B/ | [EGc]4- [EGc]2 z2 | %28
 z3/2 [^d^f^a]<[egb]B/ [dfa] [egb]2 [dfa] | [egb]>B [^d^f^a][egb]- [egb]>[dfa] [egb]>B | %30
 [^d^f^a] [egb]2 [dfa] [egb]2 [Beg]2 | [G^ce]>c e>g b>g e>c | %32
 z3/2 [^ce^g]<[=d=fa]A/ [ceg] [dfa]2 [ceg] | [dfa]>A [^ce^g][dfa]- [dfa]>[ceg] [dfa]>A | %34
 [^ce^g] [dfa]2 [ceg] [dfa]2 [=Gcf]2 | [FAd]4 !>![FB=g]4 | %36
 [ce]>[df] [^d^f]>[eg] [ce]>[=d=f] [^d^f]>[eg] | [^fc'e']2 [fc'e'][=f_ac'=d']- [fac'd']4 | %38
 z3/2 ^d'<e'b/ =d'>c' b/c'/b/=a/ | d'2 bg- g4 | [ce]>[df] [^d^f]>[eg] [ce]>[=d=f] [^d^f]>[eg] | %41
 [^fc'e']2 [fc'e'][=f_ac'=d']- [fac'd']4 |{/b} c'g e/g/e/c/ =af d/f/d/B/ | [EGc]4- [EGc]2 z2 || %44
[K:F]!8va(! (3(f'e'_e') d'2 (3(f'=e'_e') d'2 | (3(f'=e'_e') d'!>![a=e'a']- [ae'a'] [ae'a']3 | %46
 (3(f'=e'_e') d'2 (3(f'=e'_e') d'2 | (3(f'=e'_e') d'2 [=e_bc']4 | %48
 (3(f'=e'_e') d'2 (3(f'=e'_e') d'2 | (3(f'=e'_e') d'[a=e'a']- [ae'a'] [ae'a']3!8va)! | %50
 (3(G,B,_D) (3(FGB) [GB_df]2 [GBc=e][FAc=d]- | [FAcd]4 z4 | %52
!8va(! (3(f'e'_e') d'2 (3(f'=e'_e') d'2 | (3(f'=e'_e') d'!>![a-=e'a'-] [ae'a'] [ae'a']3 | %54
 (3(f'=e'_e') d'2 (3(f'=e'_e') d'2 | (3(f'=e'_e') d'2 [=e_bc']4 | %56
 (3(f'=e'_e') d'2 (3(f'=e'_e') d'2 | (3(f'=e'_e') d'[a=e'a']- [ae'a'] [ae'a']3!8va)! | %58
{/^c'} [d'f']>[bd'] d>f{/^g} [cfa]2{/g} [Bea]2 | [Acdf]4 !>![F,=B,^DG]4 || %60
[K:C]!f! [ce]>[df] [^d^f]>[eg] [ce]>[=d=f] [^d^f]>[eg] | [^fc'e']2 [fc'e'][=f_ac'=d']- [fac'd']4 | %62
 z3/2 ^d'<e'b/ =d'>c' b/c'/b/a/ | d'2 bg- g4 | [ce]>[df] [^d^f]>[eg] [ce]>[=d=f] [^d^f]>[eg] | %65
 [^fc'e']2 [fc'e'][=f_ac'=d']- [fac'd']4 |{/b} c'g e/g/e/c/ =af d/f/d/B/ | [EGc]4- [EGc]2 z2 | %68
 z3/2 [^d^f^a]<[egb]B/ [dfa] [egb]2 [dfa] | [egb]>B [^d^f^a][egb]- [egb]>[dfa] [egb]>B | %70
 [^d^f^a] [egb]2 [dfa] [egb]2 [Beg]2 | [G^ce]>c e>g b>g e>c | %72
 z3/2 [^ce^g]<[=d=fa]A/ [ceg] [dfa]2 [ceg] | [dfa]>A [^ce^g][dfa]- [dfa]>[ceg] [dfa]>A | %74
 [^ce^g] [dfa]2 [ceg] [dfa]2 [=Gcf]2 | [FAd]4 !>![FB=g]4 | %76
 [ce]>[df] [^d^f]>[eg] [ce]>[=d=f] [^d^f]>[eg] | [^fc'e']2 [fc'e'][=f_ac'=d']- [fac'd']4 | %78
 z3/2 ^d'<e'b/ =d'>c' b/c'/b/=a/ | d'2 bg- g4 | [ce]>[df] [^d^f]>[eg] [ce]>[=d=f] [^d^f]>[eg] | %81
 [^fc'e']2 [fc'e'][=f_ac'=d']- [fac'd']4 |{/b} c'g e/g/e/c/ =af d/f/d/B/ | [EGc]4- [EGc]2 z2 |] %84
V:2
!8vb(! (C,,,>C,,) (E,,,>E,,) (G,,,>G,,) (A,,,>A,,) | (C,,>C,) (A,,,>A,,) (G,,,>G,,) (E,,,>E,,) | %2
 (C,,,>C,,) (E,,,>E,,) (G,,,>G,,) (A,,,>A,,) | (C,,>C,) (A,,,>A,,) (G,,,>G,,) (E,,,>E,,)!8vb)! || %4
"_loco" (C,,>C,) (!courtesy!=E,,>E,) (G,,>G,) (A,,>A,) | (C,>C) (A,,>A,) (G,,>G,) (E,,>E,) | %6
 [_E,,_G,]2 [G,C_E]2 _A,,,2 [G,CE]2 | [_E,,_G,]2 [G,C_E]2 _A,,,2 [G,CE]2 | %8
 =G,,2 [=G,C=E]2 =A,,2 [=A,CE]2 | D,,2 [^F,CE]2 G,,,2 [=F,B,D]2 | G,,2 [G,CE]2 A,,2 [A,CE]2 | %11
 D,,2 [^F,CE]2 G,,,2 [=F,B,D]2 | (C,,>C,) (!courtesy!=E,,>E,) (G,,>G,) (A,,>A,) | %13
 (C,>C) (A,,>A,) (G,,>G,) (E,,>E,) | [_E,,_G,]2 [G,C_E]2 _A,,,2 [G,CE]2 | %15
 [_E,,_G,]2 [G,C_E]2 _A,,,2 [G,CE]2 | =G,,2 [=G,C=E]2 =A,,2 [=A,CE]2 | %17
 D,,2 [^F,CE]2 G,,,2 [=F,B,D]2 |{/G,,A,,B,,} C,8- | C, z G,,C,,- C,,2 z2 || %20
 C,2 [G,CE]2 _B,,2 [G,CE]2 | A,,2 [^F,CE]2 _A,,2 [=F,CD]2 | G,,2 [G,CE]2 =A,,2 [=A,CE]2 | %23
 D,,2 [A,CF]2 G,,2 [G,B,F]2 | C,2 [G,CE]2 _B,,2 [G,CE]2 | A,,2 [^F,CE]2 _A,,2 [=F,CD]2 | %26
 G,,2 [G,CE]2 G,,,2 [G,B,=F]2 | C,2 G,,C,,- C,,2 [B,,,B,,]2 | E,,2 [G,B,E]2 B,,,2 [^F,^A,E]2 | %29
 E,,2 [G,B,E]2 B,,,2 [G,B,E]2 | E,,2 [^F,^A,E]2 D,,2 [G,B,E]2 | ^C,,2 [G,^CE]2 A,,,2 [G,CE]2 | %32
 D,,2 [A,=D=F]2 A,,,2 [G,^CF]2 | D,,2 [A,DF]2 A,,,2 [A,DF]2 | D,,2 [G,^CF]2 A,,2 [G,A,^C]2 | %35
 =G,>G, G,,>G,, G,>G, G,,>G,, | C,2 [G,CE]2 _B,,2 [G,CE]2 | A,,2 [^F,CE]2 _A,,2 [=F,CD]2 | %38
 G,,2 [G,CE]2 =A,,2 [=A,CE]2 | D,,2 [A,CF]2 G,,2 [G,B,F]2 | C,2 [G,CE]2 _B,,2 [G,CE]2 | %41
 A,,2 [^F,CE]2 _A,,2 [=F,CD]2 | G,,2 [G,CE]2 G,,,2 [G,B,=F]2 | C,2 G,,C,,- C,,2 z2 || %44
[K:F]{/C} A,,2 [A,CF]2{/=B,} ^G,,2 [^G,=B,F]2 |{/_B,} =G,,2 [=G,_B,F]2 !arpeggio![C,,E,]2 [B,CE]2 | %46
{/C} A,,2 [A,CF]2{/=B,} ^G,,2 [^G,=B,F]2 |{/_B,} =G,,2 [=G,_B,F]2 (C2 C,2) | %48
{/C} A,,2 [A,CF]2{/=B,} ^G,,2 [^G,=B,F]2 |{/_B,} =G,,2 [=G,_B,F]2 !arpeggio![C,,E,]2 [B,CE]2 | %50
 (3(G,,B,,_D,) (3(F,G,B,) C2 C,2 | F,>E, =D,>C, E,>D, C,>B,, | %52
{/C} A,,2 [A,CF]2{/=B,} ^G,,2 [^G,=B,F]2 |{/_B,} =G,,2 [=G,_B,F]2 !arpeggio![C,,E,]2 [B,CE]2 | %54
{/C} A,,2 [A,CF]2{/=B,} ^G,,2 [^G,=B,F]2 |{/_B,} =G,,2 [=G,_B,F]2 C2 C,2 | %56
{/C} A,,2 [A,CF]2{/=B,} ^G,,2 [^G,=B,F]2 |{/_B,} =G,,2 [=G,_B,F]2 !arpeggio![C,,E,]2 [B,CE]2 | %58
 G,,>A,, B,,>=B,, C,2 C,,2 | [F,,C,]4 !>![G,,,G,,]4 ||[K:C] C,2 [G,CE]2 _B,,2 [G,CE]2 | %61
 A,,2 [^F,CE]2 _A,,2 [=F,CD]2 | G,,2 [G,CE]2 =A,,2 [=A,CE]2 | D,,2 [A,CF]2 G,,2 [G,B,F]2 | %64
 C,2 [G,CE]2 _B,,2 [G,CE]2 | A,,2 [^F,CE]2 _A,,2 [=F,CD]2 | G,,2 [G,CE]2 G,,,2 [G,B,=F]2 | %67
 C,2 G,,C,,- C,,2 [B,,,B,,]2 | E,,2 [G,B,E]2 B,,,2 [^F,^A,E]2 | E,,2 [G,B,E]2 B,,,2 [G,B,E]2 | %70
 E,,2 [^F,^A,E]2 D,,2 [G,B,E]2 | ^C,,2 [G,^CE]2 A,,,2 [G,CE]2 | D,,2 [A,=D=F]2 A,,,2 [G,^CF]2 | %73
 D,,2 [A,DF]2 A,,,2 [A,DF]2 | D,,2 [G,^CF]2 A,,2 [G,A,^C]2 | =G,>G, G,,>G,, G,>G, G,,>G,, | %76
 C,2 [G,CE]2 _B,,2 [G,CE]2 | A,,2 [^F,CE]2 _A,,2 [=F,CD]2 | G,,2 [G,CE]2 =A,,2 [=A,CE]2 | %79
 D,,2 [A,CF]2 G,,2 [G,B,F]2 | C,2 [G,CE]2 _B,,2 [G,CE]2 | A,,2 [^F,CE]2 _A,,2 [=F,CD]2 | %82
 G,,2 [G,CE]2 G,,,2 [G,B,=F]2 | C,2 G,,C,,- C,,2 z2 |] %84
V:3
 x8 | x8 | x8 | x8 || x8 | x8 | x2 [_b_e']2 x4 | [_b_e']2 x2 x4 | x8 | x8 | x8 | x8 | x8 | x8 | %14
 x2 [_b_e']2 x4 | [_b_e']2 x2 x4 | x8 | x8 | x8 | x8 || x8 | x8 | x8 | x8 | x8 | x8 | x8 | x8 | %28
 x8 | x8 | x8 | x8 | x8 | x8 | x8 | x8 | x8 | x8 | x8 | x8 | x8 | x8 | x8 | x8 || %44
[K:F]!8va(! [fc']4 [f=b]4 | [f_b]4 x4 | [fc']4 [f=b]4 | [f_b]4 x4 | [fc']4 [f=b]4 | %49
 [f_b]4 x4!8va)! | x8 | x8 |!8va(! [fc']4 [f=b]4 | [f_b]4 x4 | [fc']4 [f=b]4 | [f_b]4 x4 | %56
 [fc']4 [f=b]4 | [f_b]4 x4!8va)! | x8 | x8 ||[K:C] x8 | x8 | x8 | x8 | x8 | x8 | x8 | x8 | x8 | %69
 x8 | x8 | x8 | x8 | x8 | x8 | x8 | x8 | x8 | x8 | x8 | x8 | x8 | x8 | x8 |] %84

